app/img/azamat/candidate/info-icon1.svg

<svg width="18" height="18" viewBox="0 0 18 18" fill="none" xmlns="http://www.w3.org/2000/svg">
<path d="M16.9995 12.9791V15.3877C17.0004 15.6113 16.9545 15.8326 16.8648 16.0375C16.775 16.2424 16.6434 16.4263 16.4783 16.5775C16.3132 16.7286 16.1183 16.8437 15.906 16.9154C15.6938 16.987 15.4689 17.0136 15.2457 16.9935C12.7702 16.725 10.3923 15.8808 8.30312 14.5286C6.35937 13.2959 4.71141 11.6512 3.47627 9.71134C2.11669 7.61679 1.27059 5.23206 1.00653 2.75036C0.986426 2.52834 1.01286 2.30457 1.08416 2.0933C1.15546 1.88203 1.27005 1.6879 1.42065 1.52325C1.57124 1.35861 1.75453 1.22706 1.95886 1.13699C2.16319 1.04691 2.38407 1.00029 2.60744 1.00008H5.02086C5.41128 0.996243 5.78977 1.13422 6.0858 1.3883C6.38182 1.64237 6.57517 1.99521 6.62981 2.38103C6.73168 3.15185 6.92059 3.9087 7.19295 4.63713C7.30118 4.9245 7.32461 5.23682 7.26045 5.53707C7.19629 5.83732 7.04723 6.11292 6.83093 6.33121L5.80925 7.35087C6.95446 9.36092 8.62206 11.0252 10.6361 12.1682L11.6578 11.1485C11.8765 10.9326 12.1527 10.7839 12.4535 10.7198C12.7544 10.6558 13.0673 10.6792 13.3552 10.7872C14.0851 11.059 14.8435 11.2476 15.6158 11.3492C16.0066 11.4042 16.3635 11.6007 16.6186 11.9012C16.8737 12.2017 17.0093 12.5853 16.9995 12.9791Z" stroke="#25B072" stroke-width="1.5" stroke-linecap="round" stroke-linejoin="round"/>
</svg>

<svg width="18" height="18" fill="none" xmlns="http://www.w3.org/2000/svg"><path d="M17 12.98v2.408a1.604 1.604 0 0 1-1.754 1.606 15.94 15.94 0 0 1-6.943-2.465A15.672 15.672 0 0 1 3.476 9.71a15.869 15.869 0 0 1-2.47-6.96 1.603 1.603 0 0 1 .953-1.614c.204-.09.425-.137.648-.137h2.414A1.61 1.61 0 0 1 6.63 2.381c.102.77.29 1.528.563 2.256a1.603 1.603 0 0 1-.362 1.694l-1.022 1.02a12.86 12.86 0 0 0 4.827 4.817l1.022-1.02a1.61 1.61 0 0 1 1.697-.36c.73.271 1.489.46 2.26.561A1.61 1.61 0 0 1 17 12.98Z" stroke="#25B072" stroke-width="1.5" stroke-linecap="round" stroke-linejoin="round"/></svg>
